X:26
T:La Montagnarde
R:Bourr\'ee \`a 3 temps
C:Traditional
O:Auvergne
B:Trad Magazine Hors S\'erie ``Tablatures 2'', 1997
Z:Bert Van Vreckem <http://flanders.blackmill.net/music/>
M:3/8
L:1/8
Q:3/8=69
K:C
P:Intro/ending
ze/f/g/a/|ge/f/e/d/|c2G|c3||
P:A
"C"c/d/ee|c/d/ee|c/e/gf|e2d|c/d/ee|c/d/ee|c/e/gf|[1"G"d2d:|[2"G"d2G|
P:B
|:"C"c2B|"F"ABc|"G"d>ef|"C"edG|c2B|"F"ABc|"G"d>ed|[1"C"c2G:|[2"C"c3|]

